Newaita-dark/apps/256/yast-sound.svg

<?xml version="1.0" encoding="UTF-8"?>
<svg xmlns="http://www.w3.org/2000/svg" xmlns:xlink="http://www.w3.org/1999/xlink" width="256pt" height="256pt" viewBox="0 0 256 256" version="1.1">
<defs>
<linearGradient id="linear0" gradientUnits="userSpaceOnUse" x1="254.000031" y1="222.916656" x2="254.000046" y2="249.374985" gradientTransform="matrix(0.500048,0,0,0.500048,-0.0000305205,120.740716)">
<stop offset="0" style="stop-color:rgb(0%,0%,0%);stop-opacity:0.27451;"/>
<stop offset="1" style="stop-color:rgb(0%,0%,0%);stop-opacity:0;"/>
</linearGradient>
<radialGradient id="radial0" gradientUnits="userSpaceOnUse" cx="450.908936" cy="189.579361" fx="450.908936" fy="189.579361" r="21.166656" gradientTransform="matrix(0.00000139336,-0.62506,-1.125108,-0.000000812309,401.16867,519.34703)">
<stop offset="0" style="stop-color:rgb(0%,0%,0%);stop-opacity:0.313725;"/>
<stop offset="0.222222" style="stop-color:rgb(0%,0%,0%);stop-opacity:0.27451;"/>
<stop offset="1" style="stop-color:rgb(0%,0%,0%);stop-opacity:0;"/>
</radialGradient>
<radialGradient id="radial1" gradientUnits="userSpaceOnUse" cx="450.908936" cy="189.579361" fx="450.908936" fy="189.579361" r="21.166656" gradientTransform="matrix(-0.00000139336,0.62506,1.125108,0.000000812309,-147.144391,-49.635473)">
<stop offset="0" style="stop-color:rgb(0%,0%,0%);stop-opacity:0.313725;"/>
<stop offset="0.222222" style="stop-color:rgb(0%,0%,0%);stop-opacity:0.27451;"/>
<stop offset="1" style="stop-color:rgb(0%,0%,0%);stop-opacity:0;"/>
</radialGradient>
<radialGradient id="radial2" gradientUnits="userSpaceOnUse" cx="450.908936" cy="189.579361" fx="450.908936" fy="189.579361" r="21.166656" gradientTransform="matrix(-0.00000139336,-0.62506,1.125108,-0.000000812309,-147.144391,519.34703)">
<stop offset="0" style="stop-color:rgb(0%,0%,0%);stop-opacity:0.313725;"/>
<stop offset="0.222222" style="stop-color:rgb(0%,0%,0%);stop-opacity:0.27451;"/>
<stop offset="1" style="stop-color:rgb(0%,0%,0%);stop-opacity:0;"/>
</radialGradient>
<radialGradient id="radial3" gradientUnits="userSpaceOnUse" cx="450.908936" cy="189.579361" fx="450.908936" fy="189.579361" r="21.166656" gradientTransform="matrix(0.00000139336,0.62506,-1.125108,0.000000812309,401.168662,-49.635477)">
<stop offset="0" style="stop-color:rgb(0%,0%,0%);stop-opacity:0.313725;"/>
<stop offset="0.222222" style="stop-color:rgb(0%,0%,0%);stop-opacity:0.27451;"/>
<stop offset="1" style="stop-color:rgb(0%,0%,0%);stop-opacity:0;"/>
</radialGradient>
<linearGradient id="linear1" gradientUnits="userSpaceOnUse" x1="254" y1="254.666672" x2="254" y2="32.416664" >
<stop offset="0" style="stop-color:rgb(38.039216%,38.039216%,38.039216%);stop-opacity:1;"/>
<stop offset="1" style="stop-color:rgb(25.882353%,25.882353%,25.882353%);stop-opacity:1;"/>
</linearGradient>
<linearGradient id="linear2" gradientUnits="userSpaceOnUse" x1="960" y1="1695.118164" x2="960" y2="175.118134" >
<stop offset="0" style="stop-color:rgb(56.470588%,64.313725%,68.235294%);stop-opacity:1;"/>
<stop offset="1" style="stop-color:rgb(81.176471%,84.705882%,86.27451%);stop-opacity:1;"/>
</linearGradient>
<linearGradient id="linear3" gradientUnits="userSpaceOnUse" x1="254" y1="-142.208328" x2="254" y2="207.041672" >
<stop offset="0" style="stop-color:rgb(38.039216%,38.039216%,38.039216%);stop-opacity:1;"/>
<stop offset="1" style="stop-color:rgb(25.882353%,25.882353%,25.882353%);stop-opacity:1;"/>
</linearGradient>
<linearGradient id="linear4" gradientUnits="userSpaceOnUse" x1="243.416672" y1="-126.333344" x2="243.416672" y2="191.166672" >
<stop offset="0" style="stop-color:rgb(62.352941%,65.882353%,85.490196%);stop-opacity:1;"/>
<stop offset="1" style="stop-color:rgb(77.254902%,79.215686%,91.372549%);stop-opacity:1;"/>
</linearGradient>
<linearGradient id="linear5" gradientUnits="userSpaceOnUse" x1="254" y1="-20.5" x2="254" y2="85.333336" >
<stop offset="0" style="stop-color:rgb(38.039216%,38.039216%,38.039216%);stop-opacity:1;"/>
<stop offset="1" style="stop-color:rgb(25.882353%,25.882353%,25.882353%);stop-opacity:1;"/>
</linearGradient>
</defs>
<g id="surface1">
<path style=" stroke:none;fill-rule:nonzero;fill:url(#linear0);" d="M 63.507812 234.855469 L 190.519531 234.855469 L 190.519531 245.441406 L 63.507812 245.441406 Z M 63.507812 234.855469 "/>
<path style=" stroke:none;fill-rule:nonzero;fill:url(#radial0);" d="M 190.519531 234.855469 L 211.6875 234.855469 L 211.6875 224.269531 L 190.519531 224.269531 Z M 190.519531 234.855469 "/>
<path style=" stroke:none;fill-rule:nonzero;fill:url(#radial1);" d="M 63.507812 234.855469 L 42.335938 234.855469 L 42.335938 245.441406 L 63.507812 245.441406 Z M 63.507812 234.855469 "/>
<path style=" stroke:none;fill-rule:nonzero;fill:url(#radial2);" d="M 63.507812 234.855469 L 42.335938 234.855469 L 42.335938 224.269531 L 63.507812 224.269531 Z M 63.507812 234.855469 "/>
<path style=" stroke:none;fill-rule:nonzero;fill:url(#radial3);" d="M 190.519531 234.855469 L 211.6875 234.855469 L 211.6875 245.441406 L 190.519531 245.441406 Z M 190.519531 234.855469 "/>
<path style="fill-rule:nonzero;fill:url(#linear1);stroke-width:3;stroke-linecap:round;stroke-linejoin:miter;stroke:rgb(12.941177%,12.941177%,12.941177%);stroke-opacity:1;stroke-miterlimit:4;" d="M 105.833643 32.413873 L 402.16472 32.413873 C 413.858916 32.413873 423.334574 41.889531 423.334574 53.583727 L 423.334574 233.496233 C 423.334574 245.190429 413.858916 254.666087 402.16472 254.666087 L 105.833643 254.666087 C 94.139448 254.666087 84.66379 245.190429 84.66379 233.496233 L 84.66379 53.583727 C 84.66379 41.889531 94.139448 32.413873 105.833643 32.413873 Z M 105.833643 32.413873 " transform="matrix(0.500048,0,0,0.500048,0,107.510266)"/>
<path style="fill-rule:nonzero;fill:url(#linear2);stroke-width:11.338583;stroke-linecap:round;stroke-linejoin:miter;stroke:rgb(12.941177%,12.941177%,12.941177%);stroke-opacity:1;stroke-miterlimit:4;" d="M 959.996891 175.111189 C 778.419741 175.111189 612.106883 238.176033 481.666583 343.638404 L 450.872279 312.873625 C 419.54653 281.518351 369.08875 281.518351 337.733476 312.873625 C 306.407728 344.199374 306.407728 394.657154 337.733476 426.012427 L 368.52778 456.777206 C 263.035885 587.217506 200.000566 753.530365 200.000566 935.107514 C 200.000566 1116.684664 263.035885 1282.997522 368.52778 1413.437822 L 337.733476 1444.232126 C 306.407728 1475.5874 306.407728 1526.04518 337.733476 1557.370929 C 369.08875 1588.726202 419.54653 1588.726202 450.872279 1557.370929 L 481.666583 1526.576625 C 612.106883 1632.06852 778.419741 1695.133364 959.996891 1695.133364 C 1141.57404 1695.133364 1307.886899 1632.06852 1438.327199 1526.576625 L 1469.121502 1557.370929 C 1500.447251 1588.726202 1550.905031 1588.726202 1582.260305 1557.370929 C 1613.586054 1526.04518 1613.586054 1475.5874 1582.260305 1444.232126 L 1551.466001 1413.437822 C 1656.957896 1282.997522 1719.993216 1116.684664 1719.993216 935.107514 C 1719.993216 753.530365 1656.957896 587.217506 1551.466001 456.777206 L 1582.260305 426.012427 C 1613.586054 394.657154 1613.586054 344.199374 1582.260305 312.873625 C 1550.905031 281.518351 1500.447251 281.518351 1469.121502 312.873625 L 1438.327199 343.638404 C 1307.886899 238.176033 1141.57404 175.111189 959.996891 175.111189 Z M 959.996891 175.111189 " transform="matrix(0.132304,0,0,0.132304,0.0000028068,0.00000554903)"/>
<path style="fill-rule:nonzero;fill:url(#linear3);stroke-width:3;stroke-linecap:round;stroke-linejoin:miter;stroke:rgb(12.941177%,12.941177%,12.941177%);stroke-opacity:1;stroke-miterlimit:4;" d="M 253.999182 -142.210076 C 350.443097 -142.210076 428.623131 -66.397003 428.623131 27.125316 L 428.623131 37.710242 C 428.623131 131.22475 350.443097 207.037822 253.999182 207.037822 C 157.555267 207.037822 79.375233 131.22475 79.375233 37.710242 L 79.375233 27.125316 C 79.375233 -66.397003 157.555267 -142.210076 253.999182 -142.210076 Z M 253.999182 -142.210076 " transform="matrix(0.500048,0,0,0.500048,0,107.510266)"/>
<path style="fill-rule:nonzero;fill:url(#linear4);stroke-width:3;stroke-linecap:round;stroke-linejoin:miter;stroke:rgb(12.941177%,12.941177%,12.941177%);stroke-opacity:1;stroke-miterlimit:4;" d="M 253.999182 -126.336592 C 341.678309 -126.336592 412.749647 -55.257442 412.749647 32.413873 C 412.749647 120.093 341.678309 191.164338 253.999182 191.164338 C 166.327866 191.164338 95.248717 120.093 95.248717 32.413873 C 95.248717 -55.257442 166.327866 -126.336592 253.999182 -126.336592 Z M 253.999182 -126.336592 " transform="matrix(0.500048,0,0,0.500048,0,107.510266)"/>
<path style="fill-rule:nonzero;fill:url(#linear5);stroke-width:3;stroke-linecap:round;stroke-linejoin:miter;stroke:rgb(12.941177%,12.941177%,12.941177%);stroke-opacity:1;stroke-miterlimit:4;" d="M 253.999182 -20.502949 C 283.222954 -20.502949 306.916003 3.190101 306.916003 32.413873 C 306.916003 61.645457 283.222954 85.330695 253.999182 85.330695 C 224.77541 85.330695 201.08236 61.645457 201.08236 32.413873 C 201.08236 3.190101 224.77541 -20.502949 253.999182 -20.502949 Z M 253.999182 -20.502949 " transform="matrix(0.500048,0,0,0.500048,0,107.510266)"/>
</g>
</svg>

<svg xmlns="http://www.w3.org/2000/svg" width="256pt" height="256pt" viewBox="0 0 256 256"><defs><linearGradient id="a" gradientUnits="userSpaceOnUse" x1="254" y1="222.917" x2="254" y2="249.375" gradientTransform="matrix(.50005 0 0 .50005 0 120.74)"><stop offset="0" stop-opacity=".275"/><stop offset="1" stop-opacity="0"/></linearGradient><radialGradient id="b" gradientUnits="userSpaceOnUse" cx="450.909" cy="189.579" fx="450.909" fy="189.579" r="21.167" gradientTransform="matrix(0 -.62506 -1.1251 0 401.169 519.347)"><stop offset="0" stop-opacity=".314"/><stop offset=".222" stop-opacity=".275"/><stop offset="1" stop-opacity="0"/></radialGradient><radialGradient id="c" gradientUnits="userSpaceOnUse" cx="450.909" cy="189.579" fx="450.909" fy="189.579" r="21.167" gradientTransform="matrix(0 .62506 1.1251 0 -147.144 -49.635)"><stop offset="0" stop-opacity=".314"/><stop offset=".222" stop-opacity=".275"/><stop offset="1" stop-opacity="0"/></radialGradient><radialGradient id="d" gradientUnits="userSpaceOnUse" cx="450.909" cy="189.579" fx="450.909" fy="189.579" r="21.167" gradientTransform="matrix(0 -.62506 1.1251 0 -147.144 519.347)"><stop offset="0" stop-opacity=".314"/><stop offset=".222" stop-opacity=".275"/><stop offset="1" stop-opacity="0"/></radialGradient><radialGradient id="e" gradientUnits="userSpaceOnUse" cx="450.909" cy="189.579" fx="450.909" fy="189.579" r="21.167" gradientTransform="matrix(0 .62506 -1.1251 0 401.169 -49.635)"><stop offset="0" stop-opacity=".314"/><stop offset=".222" stop-opacity=".275"/><stop offset="1" stop-opacity="0"/></radialGradient><linearGradient id="f" gradientUnits="userSpaceOnUse" x1="254" y1="254.667" x2="254" y2="32.417"><stop offset="0" stop-color="#616161"/><stop offset="1" stop-color="#424242"/></linearGradient><linearGradient id="g" gradientUnits="userSpaceOnUse" x1="960" y1="1695.118" x2="960" y2="175.118"><stop offset="0" stop-color="#90a4ae"/><stop offset="1" stop-color="#cfd8dc"/></linearGradient><linearGradient id="h" gradientUnits="userSpaceOnUse" x1="254" y1="-142.208" x2="254" y2="207.042"><stop offset="0" stop-color="#616161"/><stop offset="1" stop-color="#424242"/></linearGradient><linearGradient id="i" gradientUnits="userSpaceOnUse" x1="243.417" y1="-126.333" x2="243.417" y2="191.167"><stop offset="0" stop-color="#9fa8da"/><stop offset="1" stop-color="#c5cae9"/></linearGradient><linearGradient id="j" gradientUnits="userSpaceOnUse" x1="254" y1="-20.5" x2="254" y2="85.333"><stop offset="0" stop-color="#616161"/><stop offset="1" stop-color="#424242"/></linearGradient></defs><path d="M63.508 234.855H190.52v10.586H63.508zm0 0" fill="url(#a)"/><path d="M190.52 234.855h21.167V224.27H190.52zm0 0" fill="url(#b)"/><path d="M63.508 234.855H42.336v10.586h21.172zm0 0" fill="url(#c)"/><path d="M63.508 234.855H42.336V224.27h21.172zm0 0" fill="url(#d)"/><path d="M190.52 234.855h21.167v10.586H190.52zm0 0" fill="url(#e)"/><path d="M105.834 32.414h296.33c11.695 0 21.17 9.476 21.17 21.17v179.912c0 11.694-9.475 21.17-21.17 21.17h-296.33c-11.695 0-21.17-9.476-21.17-21.17V53.584c0-11.694 9.475-21.17 21.17-21.17zm0 0" transform="matrix(.50005 0 0 .50005 0 107.51)" fill="url(#f)" stroke-width="3" stroke-linecap="round" stroke="#212121"/><path d="M959.997 175.111c-181.577 0-347.89 63.065-478.33 168.527l-30.795-30.764c-31.325-31.356-81.783-31.356-113.139 0-31.325 31.325-31.325 81.783 0 113.138l30.795 30.765C263.036 587.217 200 753.53 200 935.107c0 181.578 63.035 347.89 168.527 478.33l-30.795 30.795c-31.325 31.355-31.325 81.813 0 113.139 31.356 31.355 81.814 31.355 113.14 0l30.794-30.794c130.44 105.492 296.753 168.556 478.33 168.556s347.89-63.064 478.33-168.556l30.795 30.794c31.325 31.355 81.783 31.355 113.138 0 31.326-31.326 31.326-81.784 0-113.139l-30.794-30.794c105.492-130.44 168.527-296.753 168.527-478.33 0-181.578-63.035-347.89-168.527-478.33l30.794-30.766c31.326-31.355 31.326-81.813 0-113.138-31.355-31.356-81.813-31.356-113.138 0l-30.795 30.764c-130.44-105.462-296.753-168.527-478.33-168.527zm0 0" transform="matrix(.1323 0 0 .1323 0 0)" fill="url(#g)" stroke-width="11.339" stroke-linecap="round" stroke="#212121"/><path d="M254-142.21c96.443 0 174.623 75.813 174.623 169.335V37.71c0 93.515-78.18 169.328-174.624 169.328-96.444 0-174.624-75.813-174.624-169.328V27.125c0-93.522 78.18-169.335 174.624-169.335zm0 0" transform="matrix(.50005 0 0 .50005 0 107.51)" fill="url(#h)" stroke-width="3" stroke-linecap="round" stroke="#212121"/><path d="M254-126.337c87.678 0 158.75 71.08 158.75 158.75 0 87.68-71.072 158.751-158.75 158.751-87.672 0-158.751-71.071-158.751-158.75 0-87.671 71.079-158.75 158.75-158.75zm0 0" transform="matrix(.50005 0 0 .50005 0 107.51)" fill="url(#i)" stroke-width="3" stroke-linecap="round" stroke="#212121"/><path d="M254-20.503c29.223 0 52.916 23.693 52.916 52.917 0 29.231-23.693 52.917-52.917 52.917s-52.917-23.686-52.917-52.917c0-29.224 23.693-52.917 52.917-52.917zm0 0" transform="matrix(.50005 0 0 .50005 0 107.51)" fill="url(#j)" stroke-width="3" stroke-linecap="round" stroke="#212121"/></svg>
